polaris-icons/icons/newicons/ReplaceMajor.svg

<svg width="20" height="20" viewBox="0 0 20 20" fill="none" xmlns="http://www.w3.org/2000/svg">
<path d="M6.96968 2.21966C6.67678 2.51255 6.67677 2.98742 6.96966 3.28032L7.68932 4H6.91957C6.38541 3.99999 5.93956 3.99998 5.57533 4.02974C5.19545 4.06078 4.83879 4.12789 4.50153 4.29973C3.98408 4.56338 3.56338 4.98408 3.29973 5.50153C3.12789 5.83879 3.06078 6.19545 3.02974 6.57533C2.99998 6.93956 2.99999 7.38541 3 7.91956V9.25C3 9.66421 3.33579 10 3.75 10C4.16421 10 4.5 9.66421 4.5 9.25V7.95C4.5 7.37757 4.50058 6.99336 4.52476 6.69748C4.54822 6.41036 4.5901 6.27307 4.63624 6.18251C4.75608 5.94731 4.94731 5.75608 5.18251 5.63624C5.27307 5.5901 5.41036 5.54822 5.69748 5.52476C5.99336 5.50058 6.37757 5.5 6.95 5.5H7.6894L6.96967 6.21973C6.67678 6.51262 6.67678 6.9875 6.96967 7.28039C7.26256 7.57328 7.73744 7.57328 8.03033 7.28039L10.0303 5.28039C10.1091 5.2016 10.1667 5.10964 10.2031 5.0116C10.2336 4.9296 10.2492 4.84333 10.25 4.75696L10.25 4.75003C10.25 4.57297 10.1886 4.41021 10.086 4.28191C10.067 4.25805 10.0464 4.23539 10.0246 4.21404L8.03034 2.21968C7.73745 1.92678 7.26258 1.92677 6.96968 2.21966Z" fill="black"/>
<path fill-rule="evenodd" clip-rule="evenodd" d="M11 6C11 5.06812 11 4.60218 11.1522 4.23463C11.3552 3.74458 11.7446 3.35523 12.2346 3.15224C12.6022 3 13.0681 3 14 3C14.9319 3 15.3978 3 15.7654 3.15224C16.2554 3.35523 16.6448 3.74458 16.8478 4.23463C17 4.60218 17 5.06812 17 6C17 6.93188 17 7.39782 16.8478 7.76537C16.6448 8.25542 16.2554 8.64477 15.7654 8.84776C15.3978 9 14.9319 9 14 9C13.0681 9 12.6022 9 12.2346 8.84776C11.7446 8.64477 11.3552 8.25542 11.1522 7.76537C11 7.39782 11 6.93188 11 6ZM14 7.5C13.5135 7.5 13.2238 7.49919 13.0078 7.48445C12.8741 7.47533 12.8173 7.46313 12.8026 7.45939C12.685 7.40884 12.5912 7.31505 12.5406 7.19738C12.5369 7.18267 12.5247 7.12587 12.5156 6.9922C12.5008 6.77619 12.5 6.48646 12.5 6C12.5 5.51354 12.5008 5.22381 12.5156 5.0078C12.5247 4.87413 12.5369 4.81733 12.5406 4.80262C12.5912 4.68495 12.685 4.59116 12.8026 4.54061C12.8173 4.53687 12.8741 4.52467 13.0078 4.51555C13.2238 4.50081 13.5135 4.5 14 4.5C14.4865 4.5 14.7762 4.50081 14.9922 4.51555C15.1259 4.52467 15.1827 4.53687 15.1974 4.54061C15.315 4.59116 15.4088 4.68495 15.4594 4.80262C15.4631 4.81733 15.4753 4.87413 15.4844 5.0078C15.4992 5.22381 15.5 5.51354 15.5 6C15.5 6.48646 15.4992 6.77619 15.4844 6.9922C15.4753 7.12586 15.4631 7.18267 15.4594 7.19738C15.4088 7.31505 15.315 7.40884 15.1974 7.45939C15.1827 7.46313 15.1259 7.47533 14.9922 7.48445C14.7762 7.49919 14.4865 7.5 14 7.5Z" fill="black"/>
<path d="M13.05 14.5C13.6224 14.5 14.0066 14.4994 14.3025 14.4752C14.5896 14.4518 14.7269 14.4099 14.8175 14.3638C15.0527 14.2439 15.2439 14.0527 15.3638 13.8175C15.4099 13.7269 15.4518 13.5896 15.4752 13.3025C15.4994 13.0066 15.5 12.6224 15.5 12.05V10.75C15.5 10.3358 15.8358 10 16.25 10C16.6642 10 17 10.3358 17 10.75V12.0804C17 12.6146 17 13.0604 16.9703 13.4247C16.9392 13.8046 16.8721 14.1612 16.7003 14.4985C16.4366 15.0159 16.0159 15.4366 15.4985 15.7003C15.1612 15.8721 14.8046 15.9392 14.4247 15.9703C14.0604 16 13.6146 16 13.0804 16H12.3107L13.0303 16.7197C13.3232 17.0126 13.3232 17.4874 13.0303 17.7803C12.7374 18.0732 12.2626 18.0732 11.9697 17.7803L9.97536 15.786C9.95356 15.7646 9.93305 15.7419 9.91397 15.7181C9.87646 15.6713 9.84539 15.621 9.82075 15.5684C9.77537 15.4718 9.75 15.3638 9.75 15.25C9.75 15.158 9.76657 15.0698 9.79689 14.9884C9.83329 14.8904 9.89088 14.7984 9.96967 14.7196L11.9697 12.7196C12.2626 12.4267 12.7374 12.4267 13.0303 12.7196C13.3232 13.0125 13.3232 13.4874 13.0303 13.7803L12.3106 14.5H13.05Z" fill="black"/>
<path fill-rule="evenodd" clip-rule="evenodd" d="M8.84776 15.7654C9 15.3978 9 14.9319 9 14C9 13.0681 9 12.6022 8.84776 12.2346C8.64477 11.7446 8.25542 11.3552 7.76537 11.1522C7.39783 11 6.93188 11 6 11C5.06812 11 4.60218 11 4.23463 11.1522C3.74458 11.3552 3.35523 11.7446 3.15224 12.2346C3 12.6022 3 13.0681 3 14C3 14.9319 3 15.3978 3.15224 15.7654C3.35523 16.2554 3.74458 16.6448 4.23463 16.8478C4.60218 17 5.06812 17 6 17C6.93188 17 7.39783 17 7.76537 16.8478C8.25542 16.6448 8.64477 16.2554 8.84776 15.7654ZM6.99221 12.5156C6.77619 12.5008 6.48647 12.5 6 12.5C5.51354 12.5 5.22381 12.5008 5.0078 12.5156C4.87414 12.5247 4.81733 12.5369 4.80262 12.5406C4.68495 12.5912 4.59116 12.685 4.54061 12.8026C4.53687 12.8173 4.52467 12.8741 4.51555 13.0078C4.50081 13.2238 4.5 13.5135 4.5 14C4.5 14.4865 4.50081 14.7762 4.51555 14.9922C4.52467 15.1259 4.53687 15.1827 4.54061 15.1974C4.59116 15.315 4.68495 15.4088 4.80262 15.4594C4.81733 15.4631 4.87414 15.4753 5.0078 15.4844C5.22381 15.4992 5.51354 15.5 6 15.5C6.48647 15.5 6.77619 15.4992 6.99221 15.4844C7.12587 15.4753 7.18267 15.4631 7.19738 15.4594C7.31505 15.4088 7.40884 15.315 7.45939 15.1974C7.46313 15.1827 7.47533 15.1259 7.48445 14.9922C7.49919 14.7762 7.5 14.4865 7.5 14C7.5 13.5135 7.49919 13.2238 7.48445 13.0078C7.47533 12.8741 7.46313 12.8173 7.45939 12.8026C7.40884 12.685 7.31505 12.5912 7.19738 12.5406C7.18267 12.5369 7.12586 12.5247 6.99221 12.5156Z" fill="black"/>
</svg>

<svg viewBox="0 0 20 20" fill="none" xmlns="http://www.w3.org/2000/svg"><path d="M6.97 2.22a.75.75 0 0 0 0 1.06l.72.72h-.77c-.535 0-.98 0-1.345.03-.38.03-.736.098-1.073.27a2.75 2.75 0 0 0-1.202 1.202c-.172.337-.24.693-.27 1.073-.03.365-.03.81-.03 1.345v1.33a.75.75 0 0 0 1.5 0v-1.3c0-.572 0-.957.025-1.253.023-.287.065-.424.111-.514a1.25 1.25 0 0 1 .547-.547c.09-.046.227-.088.514-.111.296-.024.68-.025 1.253-.025h.74l-.72.72a.75.75 0 0 0 1.06 1.06l2-2a.747.747 0 0 0 .22-.523v-.007a.747.747 0 0 0-.225-.536l-1.995-1.994a.75.75 0 0 0-1.06 0Z" fill="#5C5F62"/><path fill-rule="evenodd" clip-rule="evenodd" d="M11 6c0-.932 0-1.398.152-1.765a2 2 0 0 1 1.083-1.083c.367-.152.833-.152 1.765-.152.932 0 1.398 0 1.765.152a2 2 0 0 1 1.083 1.083c.152.367.152.833.152 1.765 0 .932 0 1.398-.152 1.765a2 2 0 0 1-1.083 1.083c-.367.152-.833.152-1.765.152-.932 0-1.398 0-1.765-.152a2 2 0 0 1-1.083-1.083c-.152-.367-.152-.833-.152-1.765Zm3 1.5c-.486 0-.776 0-.992-.016a1.28 1.28 0 0 1-.205-.025.5.5 0 0 1-.262-.262 1.287 1.287 0 0 1-.025-.205 16.516 16.516 0 0 1-.016-.992c0-.486 0-.776.016-.992.009-.134.02-.19.025-.205a.5.5 0 0 1 .262-.262 1.28 1.28 0 0 1 .205-.025c.216-.015.506-.016.992-.016s.776 0 .992.016c.134.009.19.02.205.025a.5.5 0 0 1 .262.262c.004.014.016.071.025.205.015.216.016.506.016.992s0 .776-.016.992c-.009.134-.02.19-.025.205a.5.5 0 0 1-.262.262 1.28 1.28 0 0 1-.205.025c-.216.015-.506.016-.992.016Z" fill="#5C5F62"/><path d="M13.05 14.5c.572 0 .957 0 1.252-.025.288-.023.425-.065.516-.111a1.25 1.25 0 0 0 .546-.546c.046-.091.088-.228.111-.515.024-.296.025-.68.025-1.253v-1.3a.75.75 0 0 1 1.5 0v1.33c0 .535 0 .98-.03 1.345-.03.38-.098.736-.27 1.073a2.751 2.751 0 0 1-1.201 1.202c-.338.172-.694.24-1.074.27-.365.03-.81.03-1.345.03h-.77l.72.72a.75.75 0 1 1-1.06 1.06l-1.995-1.994a.77.77 0 0 1-.154-.218.747.747 0 0 1 .149-.848l2-2a.75.75 0 1 1 1.06 1.06l-.72.72h.74Z" fill="#5C5F62"/><path fill-rule="evenodd" clip-rule="evenodd" d="M8.848 15.765c.152-.367.152-.833.152-1.765 0-.932 0-1.398-.152-1.765a2 2 0 0 0-1.083-1.083c-.367-.152-.833-.152-1.765-.152-.932 0-1.398 0-1.765.152a2 2 0 0 0-1.083 1.083c-.152.367-.152.833-.152 1.765 0 .932 0 1.398.152 1.765a2 2 0 0 0 1.083 1.083c.367.152.833.152 1.765.152.932 0 1.398 0 1.765-.152a2 2 0 0 0 1.083-1.083Zm-1.856-3.25a16.516 16.516 0 0 0-.992-.015c-.486 0-.776 0-.992.016-.134.009-.19.02-.205.025a.5.5 0 0 0-.262.262 1.28 1.28 0 0 0-.025.205c-.015.216-.016.506-.016.992s0 .776.016.992c.009.134.02.19.025.205a.5.5 0 0 0 .262.262c.014.004.071.016.205.025.216.015.506.016.992.016s.776 0 .992-.016c.134-.009.19-.02.205-.025a.5.5 0 0 0 .262-.262 1.28 1.28 0 0 0 .025-.205c.015-.216.016-.506.016-.992s0-.776-.016-.992a1.28 1.28 0 0 0-.025-.205.5.5 0 0 0-.262-.262 1.287 1.287 0 0 0-.205-.025Z" fill="#5C5F62"/></svg>
